svg/device/qrcode_line.svg

<?xml version="1.0" encoding="UTF-8"?>
<svg width="24px" height="24px" viewBox="0 0 24 24" version="1.1" xmlns="http://www.w3.org/2000/svg" xmlns:xlink="http://www.w3.org/1999/xlink">
    <title>qrcode_line</title>
    <g id="页面-1" stroke="none" stroke-width="1" fill="none" fill-rule="evenodd">
        <g id="Device" transform="translate(-384.000000, -96.000000)">
            <g id="qrcode_line" transform="translate(384.000000, 96.000000)">
                 <path d="M24,0 L24,24 L0,24 L0,0 L24,0 Z M12.5934901,23.257841 L12.5819402,23.2595131 L12.5108777,23.2950439 L12.4918791,23.2987469 L12.4918791,23.2987469 L12.4767152,23.2950439 L12.4056548,23.2595131 C12.3958229,23.2563662 12.3870493,23.2590235 12.3821421,23.2649074 L12.3780323,23.275831 L12.360941,23.7031097 L12.3658947,23.7234994 L12.3769048,23.7357139 L12.4804777,23.8096931 L12.4953491,23.8136134 L12.4953491,23.8136134 L12.5071152,23.8096931 L12.6106902,23.7357139 L12.6232938,23.7196733 L12.6232938,23.7196733 L12.6266527,23.7031097 L12.609561,23.275831 C12.6075724,23.2657013 12.6010112,23.2592993 12.5934901,23.257841 L12.5934901,23.257841 Z M12.8583906,23.1452862 L12.8445485,23.1473072 L12.6598443,23.2396597 L12.6498822,23.2499052 L12.6498822,23.2499052 L12.6471943,23.2611114 L12.6650943,23.6906389 L12.6699349,23.7034178 L12.6699349,23.7034178 L12.678386,23.7104931 L12.8793402,23.8032389 C12.8914285,23.8068999 12.9022333,23.8029875 12.9078286,23.7952264 L12.9118235,23.7811639 L12.8776777,23.1665331 C12.8752882,23.1545897 12.8674102,23.1470016 12.8583906,23.1452862 L12.8583906,23.1452862 Z M12.1430473,23.1473072 C12.1332178,23.1423925 12.1221763,23.1452606 12.1156365,23.1525954 L12.1099173,23.1665331 L12.0757714,23.7811639 C12.0751323,23.7926639 12.0828099,23.8018602 12.0926481,23.8045676 L12.108256,23.8032389 L12.3092106,23.7104931 L12.3186497,23.7024347 L12.3186497,23.7024347 L12.3225043,23.6906389 L12.340401,23.2611114 L12.337245,23.2485176 L12.337245,23.2485176 L12.3277531,23.2396597 L12.1430473,23.1473072 Z" id="MingCute" fill-rule="nonzero"></path>
                <path d="M14,13 C14.51285,13 14.9355092,13.386027 14.9932725,13.8833761 L15,14 L15,20 C15,20.5523 14.5523,21 14,21 C13.48715,21 13.0644908,20.613973 13.0067275,20.1166239 L13,20 L13,14 C13,13.4477 13.4477,13 14,13 Z M17,17.5 C17.5523,17.5 18,17.9477 18,18.5 L18,20 C18,20.5523 17.5523,21 17,21 C16.4477,21 16,20.5523 16,20 L16,18.5 C16,17.9477 16.4477,17.5 17,17.5 Z M20,13 C20.51285,13 20.9355092,13.386027 20.9932725,13.8833761 L21,14 L21,20 C21,20.5523 20.5523,21 20,21 C19.48715,21 19.0644908,20.613973 19.0067275,20.1166239 L19,20 L19,14 C19,13.4477 19.4477,13 20,13 Z M9,13 C10.1046,13 11,13.8954 11,15 L11,19 C11,20.1046 10.1046,21 9,21 L5,21 C3.89543,21 3,20.1046 3,19 L3,15 C3,13.8954 3.89543,13 5,13 L9,13 Z M9,15 L5,15 L5,19 L9,19 L9,15 Z M17,13 C17.51285,13 17.9355092,13.386027 17.9932725,13.8833761 L18,14 L18,15.5 C18,16.0523 17.5523,16.5 17,16.5 C16.48715,16.5 16.0644908,16.113973 16.0067275,15.6166239 L16,15.5 L16,14 C16,13.4477 16.4477,13 17,13 Z M9,3 C10.1046,3 11,3.89543 11,5 L11,9 C11,10.1046 10.1046,11 9,11 L5,11 C3.89543,11 3,10.1046 3,9 L3,5 C3,3.89543 3.89543,3 5,3 L9,3 Z M19,3 C20.1046,3 21,3.89543 21,5 L21,9 C21,10.1046 20.1046,11 19,11 L15,11 C13.8954,11 13,10.1046 13,9 L13,5 C13,3.89543 13.8954,3 15,3 L19,3 Z M9,5 L5,5 L5,9 L9,9 L9,5 Z M19,5 L15,5 L15,9 L19,9 L19,5 Z" id="形状" fill="#09244B"></path>
            </g>
        </g>
    </g>
</svg>

<svg xmlns="http://www.w3.org/2000/svg" width="24" height="24"><g fill="none" fill-rule="evenodd"><path d="M24 0v24H0V0h24ZM12.593 23.258l-.011.002-.071.035-.02.004-.014-.004-.071-.035c-.01-.004-.019-.001-.024.005l-.004.01-.017.428.005.02.01.013.104.074.015.004.012-.004.104-.074.012-.016.004-.017-.017-.427c-.002-.01-.009-.017-.017-.018Zm.265-.113-.013.002-.185.093-.01.01-.003.011.018.43.005.012.008.007.201.093c.012.004.023 0 .029-.008l.004-.014-.034-.614c-.003-.012-.01-.02-.02-.022Zm-.715.002a.023.023 0 0 0-.027.006l-.006.014-.034.614c0 .012.007.02.017.024l.015-.002.201-.093.01-.008.004-.011.017-.43-.003-.012-.01-.01-.184-.092Z"/><path fill="#09244B" d="M14 13a1 1 0 0 1 .993.883L15 14v6a1 1 0 0 1-1.993.117L13 20v-6a1 1 0 0 1 1-1Zm3 4.5a1 1 0 0 1 1 1V20a1 1 0 1 1-2 0v-1.5a1 1 0 0 1 1-1Zm3-4.5a1 1 0 0 1 .993.883L21 14v6a1 1 0 0 1-1.993.117L19 20v-6a1 1 0 0 1 1-1ZM9 13a2 2 0 0 1 2 2v4a2 2 0 0 1-2 2H5a2 2 0 0 1-2-2v-4a2 2 0 0 1 2-2h4Zm0 2H5v4h4v-4Zm8-2a1 1 0 0 1 .993.883L18 14v1.5a1 1 0 0 1-1.993.117L16 15.5V14a1 1 0 0 1 1-1ZM9 3a2 2 0 0 1 2 2v4a2 2 0 0 1-2 2H5a2 2 0 0 1-2-2V5a2 2 0 0 1 2-2h4Zm10 0a2 2 0 0 1 2 2v4a2 2 0 0 1-2 2h-4a2 2 0 0 1-2-2V5a2 2 0 0 1 2-2h4ZM9 5H5v4h4V5Zm10 0h-4v4h4V5Z"/></g></svg>
